icons/editor-scissors-1-filled.svg

<svg width="25" height="24" viewBox="0 0 25 24" fill="none" xmlns="http://www.w3.org/2000/svg">
<g id="scissors-01">
<path id="Icon" d="M8.29434 9.24356L20.185 18.9424M20.185 5.79143L8.29434 15.4903M17.4453 12.3674L17.4239 12.3888M21.8504 12.3673L21.8289 12.3888M5.93813 10.1751C4.12236 10.1751 2.65039 8.70311 2.65039 6.88735C2.65039 5.07158 4.12236 3.59961 5.93813 3.59961C7.75389 3.59961 9.22586 5.07158 9.22586 6.88735C9.22586 8.70311 7.75389 10.1751 5.93813 10.1751ZM5.93813 21.1342C4.12236 21.1342 2.65039 19.6622 2.65039 17.8465C2.65039 16.0307 4.12236 14.5587 5.93813 14.5587C7.75389 14.5587 9.22586 16.0307 9.22586 17.8465C9.22586 19.6622 7.75389 21.1342 5.93813 21.1342Z" stroke="black" stroke-width="2" stroke-linecap="round" stroke-linejoin="round"/>
</g>
</svg>

<svg xmlns="http://www.w3.org/2000/svg" width="25" height="24" fill="none" viewBox="0 0 25 24"><path stroke="currentColor" stroke-linecap="round" stroke-linejoin="round" stroke-width="2" d="m8.294 9.244 11.891 9.698m0-13.15L8.295 15.49m9.15-3.123-.021.022m4.426-.022-.021.022m-15.89-2.214a3.288 3.288 0 1 1 0-6.575 3.288 3.288 0 0 1 0 6.575m0 10.96a3.288 3.288 0 1 1 0-6.576 3.288 3.288 0 0 1 0 6.575"/></svg>
